X:2
T:Hay (sic) My Nannie
M:9/8
L:1/8
S:Gow - 3rd Repository (1806)
Z:AK/Fiddler's Companion
K:A
=g|:f2A ceA ceA|f2A ceA Bd=g|f2A ceA cef|=gfg dBG Bdg:|
|:f>ga eae ce=g|fga ef=g Bdg|f>ga eae cef|~=gfg dBG Bdg:||

